packages/calcite-ui-icons/icons/closed-caption-16.svg

<?xml version="1.0" encoding="UTF-8"?><svg id="icons" xmlns="http://www.w3.org/2000/svg" viewBox="0 0 16 16"><defs><style>.cls-1{fill:none;}.cls-1,.cls-2{stroke-width:0px;}.cls-2{fill:#000;}</style></defs><rect class="cls-1" width="16" height="16"/><path class="cls-2" d="M6.26489,6.50932c-.39108-.49538-.84079-.70562-1.39772-.70562-1.24421,0-1.95347.96499-1.95347,2.15311,0,1.18731.82805,2.15231,1.95347,2.15231.60398,0,1.06603-.22232,1.41006-.7169l.68652.67985c-.53301.6436-1.29127.92794-2.09658.92794-1.71783,0-2.86717-1.26142-2.86717-3.04319,0-1.7568,1.16091-2.95681,2.86717-2.95681.81765,0,1.5759.19796,2.13283.82866l-.73511.68065ZM14,5.82866c-.55693-.63071-1.31518-.82866-2.13283-.82866-1.70626,0-2.86717,1.2-2.86717,2.95681,0,1.78177,1.14934,3.04319,2.86717,3.04319.80531,0,1.56356-.28434,2.09658-.92794l-.68652-.67985c-.34403.49458-.80608.7169-1.41006.7169-1.12542,0-1.95347-.96499-1.95347-2.15231,0-1.18812.70925-2.15311,1.95347-2.15311.55693,0,1.00663.21024,1.39772.70562l.73511-.68065ZM1.5,15c-.82715,0-1.5-.67285-1.5-1.5V2.5c0-.82715.67285-1.5,1.5-1.5h13c.82715,0,1.5.67285,1.5,1.5v11c0,.82715-.67285,1.5-1.5,1.5H1.5ZM1.5,14h13c.27588,0,.5-.22412.5-.5V2.5c0-.27588-.22412-.5-.5-.5H1.5c-.27588,0-.5.22412-.5.5v11c0,.27588.22412.5.5.5Z"/></svg>

<svg xmlns="http://www.w3.org/2000/svg" viewBox="0 0 16 16"><path d="M6.265 6.51c-.391-.496-.84-.706-1.398-.706-1.244 0-1.953.965-1.953 2.153 0 1.187.828 2.152 1.953 2.152.604 0 1.066-.222 1.41-.717l.687.68c-.533.644-1.292.928-2.097.928C3.15 11 2 9.739 2 7.957 2 6.2 3.16 5 4.867 5c.818 0 1.576.198 2.133.829l-.735.68zM14 5.828C13.443 5.198 12.685 5 11.867 5 10.161 5 9 6.2 9 7.957 9 9.739 10.15 11 11.867 11c.805 0 1.564-.284 2.097-.928l-.687-.68c-.344.495-.806.717-1.41.717-1.125 0-1.953-.965-1.953-2.152 0-1.188.709-2.153 1.953-2.153.557 0 1.007.21 1.398.705L14 5.83zM1.5 15C.673 15 0 14.327 0 13.5v-11C0 1.673.673 1 1.5 1h13c.827 0 1.5.673 1.5 1.5v11c0 .827-.673 1.5-1.5 1.5h-13zm0-1h13a.5.5 0 0 0 .5-.5v-11a.5.5 0 0 0-.5-.5h-13a.5.5 0 0 0-.5.5v11a.5.5 0 0 0 .5.5z"/><path fill="none" d="M0 0h16v16H0z"/></svg>
